Origami/64x64/apps/discord.svg

<svg width="64" height="64" version="1.1" viewBox="0 0 64 64" xmlns="http://www.w3.org/2000/svg">
 <path d="m6 48v2c0 3.324 2.676 6 6 6h40l6 6v-2l-6-6h-40c-3.324 0-6-2.676-6-6z" style="opacity:.2"/>
 <rect x="6" y="3" width="52" height="52" rx="6" ry="6" style="fill:#7289da"/>
 <path d="m44 48 14 14v-2l-12-12h-2z" style="fill-rule:evenodd;opacity:.2"/>
 <path d="m58 61-14-14h14z" style="fill-rule:evenodd;fill:#7289da"/>
 <path d="m29.351562 18s-3.960847-0.08611-8.15625 2.996094c-4.195399 3.0822-6.195312 7.461744-6.195312 16.652344 0 0 3.447919 4.149962 9.886719 4.351562 0 0 1.079085-1.268481 1.953125-2.363281-3.7-1.0948-5.101563-3.371094-5.101563-3.371094 3.409083 1.905748 5.726618 2.701222 9.261719 2.734375 3.535101-0.03315 7.852636-0.828627 11.261719-2.734375 0 0-1.401563 2.276294-5.101563 3.371094 0.87404 1.0948 1.953125 2.363281 1.953125 2.363281 6.4388-0.2016 9.886719-4.351562 9.886719-4.351562 0-9.1906-1.999913-13.570144-6.195312-16.652344-4.1954-3.082204-8.156251-2.996094-8.15625-2.996094l-0.292969 0.345703c5.2442 1.4694 7.632812 3.742188 7.632812 3.742188-2.988281-2.087891-7.988281-2.087891-9.988281-2.087891s-7 4e-6 -9.988281 2.087891c0 0 2.388612-2.272788 7.632812-3.742188zm-2.351562 10c1.67632 0 3.0292 1.559133 3 3.5 0 1.940867-1.32368 3.5-3 3.5-1.6469 0-3-1.559133-3-3.5s1.32372-3.5 3-3.5zm10 0c1.67628 0 3 1.559133 3 3.5s-1.3531 3.5-3 3.5c-1.67632 0-3-1.559133-3-3.5-0.0292-1.940867 1.32368-3.5 3-3.5z" style="opacity:.2"/>
 <path d="m29.351562 17s-3.960847-0.08611-8.15625 2.996094c-4.195399 3.0822-6.195312 7.461744-6.195312 16.652344 0 0 3.447919 4.149962 9.886719 4.351562 0 0 1.079085-1.268481 1.953125-2.363281-3.7-1.0948-5.101563-3.371094-5.101563-3.371094 3.409083 1.905748 5.726618 2.701222 9.261719 2.734375 3.535101-0.03315 7.852636-0.828627 11.261719-2.734375 0 0-1.401563 2.276294-5.101563 3.371094 0.87404 1.0948 1.953125 2.363281 1.953125 2.363281 6.4388-0.2016 9.886719-4.351562 9.886719-4.351562 0-9.1906-1.999913-13.570144-6.195312-16.652344-4.1954-3.082204-8.156251-2.996094-8.15625-2.996094l-0.292969 0.345703c5.2442 1.4694 7.632812 3.742188 7.632812 3.742188-2.988281-2.087891-7.988281-2.087891-9.988281-2.087891s-7 4e-6 -9.988281 2.087891c0 0 2.388612-2.272788 7.632812-3.742188zm-2.351562 10c1.67632 0 3.0292 1.559133 3 3.5 0 1.940867-1.32368 3.5-3 3.5-1.6469 0-3-1.559133-3-3.5s1.32372-3.5 3-3.5zm10 0c1.67628 0 3 1.559133 3 3.5s-1.3531 3.5-3 3.5c-1.67632 0-3-1.559133-3-3.5-0.0292-1.940867 1.32368-3.5 3-3.5z" style="fill:#ffffff"/>
 <path d="m12 3c-3.324 0-6 2.676-6 6v1c0-3.324 2.676-6 6-6h40c3.324 0 6 2.676 6 6v-1c0-3.324-2.676-6-6-6h-40z" style="fill:#ffffff;opacity:.2"/>
</svg>

<svg xmlns="http://www.w3.org/2000/svg" width="64" height="64" version="1.1" viewBox="0 0 64 64">
 <path style="opacity:0.2" d="m 6,48 0,2 c 0,3.324 2.676,6 6,6 l 40,0 6,6 0,-2 -6,-6 -40,0 C 8.676,54 6,51.324 6,48 Z"/>
 <rect style="fill:#7289da" width="52" height="52" x="6" y="3" rx="6" ry="6"/>
 <path style="opacity:0.2;fill-rule:evenodd" d="M 44,48 58,62 58,60 46,48 44,48 Z"/>
 <path style="fill:#7289da;fill-rule:evenodd" d="M 58,61 44,47 58,47 Z"/>
 <path style="opacity:0.2" d="m 29.351562,18 c 0,0 -3.960847,-0.08611 -8.15625,2.996094 C 16.999913,24.078294 15,28.457838 15,37.648438 c 0,0 3.447919,4.149962 9.886719,4.351562 0,0 1.079085,-1.268481 1.953125,-2.363281 -3.7,-1.0948 -5.101563,-3.371094 -5.101563,-3.371094 C 25.147364,38.171373 27.464899,38.966847 31,39 c 3.535101,-0.03315 7.852636,-0.828627 11.261719,-2.734375 0,0 -1.401563,2.276294 -5.101563,3.371094 C 38.034196,40.731519 39.113281,42 39.113281,42 45.552081,41.7984 49,37.648438 49,37.648438 49,28.457838 47.000087,24.078294 42.804688,20.996094 38.609288,17.91389 34.648437,18 34.648438,18 l -0.292969,0.345703 c 5.2442,1.4694 7.632812,3.742188 7.632812,3.742188 C 39,20 34,20 32,20 c -2,0 -7,4e-6 -9.988281,2.087891 0,0 2.388612,-2.272788 7.632812,-3.742188 z M 27,28 c 1.67632,0 3.0292,1.559133 3,3.5 0,1.940867 -1.32368,3.5 -3,3.5 -1.6469,0 -3,-1.559133 -3,-3.5 0,-1.940867 1.32372,-3.5 3,-3.5 z m 10,0 c 1.67628,0 3,1.559133 3,3.5 0,1.940867 -1.3531,3.5 -3,3.5 -1.67632,0 -3,-1.559133 -3,-3.5 -0.0292,-1.940867 1.32368,-3.5 3,-3.5 z"/>
 <path style="fill:#ffffff" d="m 29.351562,17 c 0,0 -3.960847,-0.08611 -8.15625,2.996094 C 16.999913,23.078294 15,27.457838 15,36.648438 c 0,0 3.447919,4.149962 9.886719,4.351562 0,0 1.079085,-1.268481 1.953125,-2.363281 -3.7,-1.0948 -5.101563,-3.371094 -5.101563,-3.371094 C 25.147364,37.171373 27.464899,37.966847 31,38 c 3.535101,-0.03315 7.852636,-0.828627 11.261719,-2.734375 0,0 -1.401563,2.276294 -5.101563,3.371094 C 38.034196,39.731519 39.113281,41 39.113281,41 45.552081,40.7984 49,36.648438 49,36.648438 49,27.457838 47.000087,23.078294 42.804688,19.996094 38.609288,16.91389 34.648437,17 34.648438,17 l -0.292969,0.345703 c 5.2442,1.4694 7.632812,3.742188 7.632812,3.742188 C 39,19 34,19 32,19 c -2,0 -7,4e-6 -9.988281,2.087891 0,0 2.388612,-2.272788 7.632812,-3.742188 z M 27,27 c 1.67632,0 3.0292,1.559133 3,3.5 0,1.940867 -1.32368,3.5 -3,3.5 -1.6469,0 -3,-1.559133 -3,-3.5 0,-1.940867 1.32372,-3.5 3,-3.5 z m 10,0 c 1.67628,0 3,1.559133 3,3.5 0,1.940867 -1.3531,3.5 -3,3.5 -1.67632,0 -3,-1.559133 -3,-3.5 -0.0292,-1.940867 1.32368,-3.5 3,-3.5 z"/>
 <path style="opacity:0.2;fill:#ffffff" d="M 12 3 C 8.676 3 6 5.676 6 9 L 6 10 C 6 6.676 8.676 4 12 4 L 52 4 C 55.324 4 58 6.676 58 10 L 58 9 C 58 5.676 55.324 3 52 3 L 12 3 z"/>
</svg>
